symbols/web/camera_rear/materialsymbolssharp/camera_rear_wght100_40px.svg

<svg xmlns="http://www.w3.org/2000/svg" height="40" width="40"><path d="M10.5 28.375V5.5h19v22.875h-1V6.5h-17v21.875ZM20 16.417q.958 0 1.604-.667.646-.667.646-1.583 0-.959-.667-1.604-.666-.646-1.583-.646-.958 0-1.604.666-.646.667-.646 1.584 0 .958.667 1.604.666.646 1.583.646ZM17.542 36l-.709-.708 3.042-3.042H10.5v-1h9.375l-3.042-3.042.709-.75 4.25 4.292Zm5.791-3.75v-1H29.5v1Zm-3.291-14.833Z"/></svg>

<svg xmlns="http://www.w3.org/2000/svg" height="40" width="40"><path d="M10.5 28.375V5.5H29.5V28.375H28.5V6.5H11.5V28.375ZM20 16.417Q20.958 16.417 21.604 15.75Q22.25 15.083 22.25 14.167Q22.25 13.208 21.583 12.563Q20.917 11.917 20 11.917Q19.042 11.917 18.396 12.583Q17.75 13.25 17.75 14.167Q17.75 15.125 18.417 15.771Q19.083 16.417 20 16.417ZM17.542 36 16.833 35.292 19.875 32.25H10.5V31.25H19.875L16.833 28.208L17.542 27.458L21.792 31.75ZM23.333 32.25V31.25H29.5V32.25ZM20.042 17.417Z"/></svg>
